svg/free/window-restore.svg

<svg version="1.1" xmlns="http://www.w3.org/2000/svg" width="24" height="24" viewBox="0 0 24 24">
<title>window-restore</title>
<path d="M16.5 7.172h-14.613c-0.621 0.001-1.124 0.504-1.125 1.125v13.172c0.001 0.621 0.504 1.124 1.125 1.125h14.613c0.621-0.001 1.124-0.504 1.125-1.125v-13.172c-0.001-0.621-0.504-1.124-1.125-1.125h-0zM16.125 8.672v2.12h-13.863v-2.12zM2.262 21.094v-8.802h13.863v8.802z"></path>
<path d="M22.125 1.5h-15c-0.621 0.001-1.124 0.504-1.125 1.125v3.047h1.5v-2.672h14.25v12.897h-2.625v1.5h3c0.621-0.001 1.124-0.504 1.125-1.125v-13.647c-0.001-0.621-0.504-1.124-1.125-1.125h-0z"></path>
</svg>

<svg xmlns="http://www.w3.org/2000/svg" width="24" height="24" viewBox="0 0 24 24"><path d="M16.5 7.172H1.887A1.127 1.127 0 00.762 8.297v13.172a1.127 1.127 0 001.125 1.125H16.5a1.127 1.127 0 001.125-1.125V8.297A1.127 1.127 0 0016.5 7.172zm-.375 1.5v2.12H2.262v-2.12zM2.262 21.094v-8.802h13.863v8.802z"/><path d="M22.125 1.5h-15A1.127 1.127 0 006 2.625v3.047h1.5V3h14.25v12.897h-2.625v1.5h3a1.127 1.127 0 001.125-1.125V2.625A1.127 1.127 0 0022.125 1.5z"/></svg>
